X:945
T:Wedding Bells
C:Joe Buchanan's Scottish Tome - Page 551.1
I:551 1
Z:Carl Allison
R:Waltz
L:1/4
M:3/4
K:G
(B2 G) | (D2 B) | A>G A/G/ | F3 | (A2 F) | (D2 c) | c | B>A B/A/ | G2 G |
(G2 F) | (D2 G) | (D2 G) | B3 | (B2 A) | (G2 E) | (F2 G) | A2 A |
(B2 G) | (D2 B) | A>G A/G/ | F3 | (A2 F) | (D2 c) | B>A B/A/ | G2 G |
(G2 F) | (E2 G) | (D2 G) | B3 | (A2 E) | (G2 F) | G3- | G3 |]

